(POPCORN PENGUINS GENERATED AT 12102025, 85917 PM)
(FUSIONTEST2)
(T6 D=4. CR=0. - ZMIN=-7.37 - FLAT END MILL)
G90 G94 G91.1 G40 G49 G17
G21
G28 G91 Z0.
G90

(BORE1)
T6 M6
S24000 M3
G17 G90 G94
G54
G0 X-0.33 Y-52.2
G0 Z15.
Z1.
G1 Z-0.6 F365.
G18 G2 X0.07 Z-1. I0.4 K0.
G1 X0.27
G17 G3 X0.54 Y-51.93 I0. J0.27
X-0.54 Z-1.089 I-0.54 J0.
X0.54 Z-1.177 I0.54 J0.
X-0.54 Z-1.266 I-0.54 J0.
X0.54 Z-1.355 I0.54 J0.
X-0.54 Z-1.443 I-0.54 J0.
X0.54 Z-1.532 I0.54 J0.
X-0.54 Z-1.621 I-0.54 J0.
X0.54 Z-1.71 I0.54 J0.
X-0.54 Z-1.798 I-0.54 J0.
X0.54 Z-1.887 I0.54 J0.
X-0.54 Z-1.976 I-0.54 J0.
X0.54 Z-2.064 I0.54 J0.
X-0.54 Z-2.153 I-0.54 J0.
X0.54 Z-2.242 I0.54 J0.
X-0.54 Z-2.33 I-0.54 J0.
X0.54 Z-2.419 I0.54 J0.
X-0.54 Z-2.508 I-0.54 J0.
X0.54 Z-2.597 I0.54 J0.
X-0.54 Z-2.685 I-0.54 J0.
X0.54 Z-2.774 I0.54 J0.
X-0.54 Z-2.863 I-0.54 J0.
X0.54 Z-2.951 I0.54 J0.
X-0.54 Z-3.04 I-0.54 J0.
X0.54 Z-3.129 I0.54 J0.
X-0.54 Z-3.217 I-0.54 J0.
X0.54 Z-3.306 I0.54 J0.
X-0.54 Z-3.395 I-0.54 J0.
X0.54 Z-3.484 I0.54 J0.
X-0.54 Z-3.572 I-0.54 J0.
X0.54 Z-3.661 I0.54 J0.
X-0.54 Z-3.75 I-0.54 J0.
X0.54 Z-3.838 I0.54 J0.
X-0.54 Z-3.927 I-0.54 J0.
X0.54 Z-4.016 I0.54 J0.
X-0.54 Z-4.104 I-0.54 J0.
X0.54 Z-4.193 I0.54 J0.
X-0.54 Z-4.282 I-0.54 J0.
X0.54 Z-4.371 I0.54 J0.
X-0.54 Z-4.459 I-0.54 J0.
X0.54 Z-4.548 I0.54 J0.
X-0.54 Z-4.637 I-0.54 J0.
X0.54 Z-4.725 I0.54 J0.
X-0.54 Z-4.814 I-0.54 J0.
X0.54 Z-4.903 I0.54 J0.
X-0.54 Z-4.991 I-0.54 J0.
X0.54 Z-5.08 I0.54 J0.
X-0.54 Z-5.169 I-0.54 J0.
X0.54 Z-5.258 I0.54 J0.
X-0.54 Z-5.346 I-0.54 J0.
X0.54 Z-5.435 I0.54 J0.
X-0.54 Z-5.524 I-0.54 J0.
X0.54 Z-5.612 I0.54 J0.
X-0.54 Z-5.701 I-0.54 J0.
X0.54 Z-5.79 I0.54 J0.
X-0.54 Z-5.878 I-0.54 J0.
X0.54 Z-5.967 I0.54 J0.
X-0.54 Z-6.056 I-0.54 J0.
X0.54 Z-6.145 I0.54 J0.
X-0.54 Z-6.233 I-0.54 J0.
X0.54 Z-6.322 I0.54 J0.
X-0.54 Z-6.411 I-0.54 J0.
X0.54 Z-6.499 I0.54 J0.
X-0.54 Z-6.588 I-0.54 J0.
X0.54 Z-6.677 I0.54 J0.
X-0.54 Z-6.765 I-0.54 J0.
X0.54 Z-6.854 I0.54 J0.
X-0.54 Z-6.943 I-0.54 J0.
X0.54 Z-7.032 I0.54 J0.
X-0.54 Z-7.12 I-0.54 J0.
X0.54 Z-7.209 I0.54 J0.
X-0.54 Z-7.298 I-0.54 J0.
X0.452 Y-52.225 Z-7.37 I0.54 J0.
X-0.452 Y-51.635 I-0.452 J0.295
X0.452 Y-52.225 I0.452 J-0.295
X0.374 Y-51.852 I-0.226 J0.147
G1 X0.206 Y-51.742
X0.141 Y-51.7 Z-7.362
X0.078 Y-51.659 Z-7.34
X0.02 Y-51.621 Z-7.303
X-0.031 Y-51.588 Z-7.253
X-0.073 Y-51.561 Z-7.192
X-0.103 Y-51.541 Z-7.123
X-0.123 Y-51.528 Z-7.048
X-0.129 Y-51.524 Z-6.97
G0 Z5.
X-0.33 Y-15.37
Z1.
G1 Z-0.6 F365.
G18 G2 X0.07 Z-1. I0.4 K0.
G1 X0.27
G17 G3 X0.54 Y-15.1 I0. J0.27
X-0.54 Z-1.089 I-0.54 J0.
X0.54 Z-1.177 I0.54 J0.
X-0.54 Z-1.266 I-0.54 J0.
X0.54 Z-1.355 I0.54 J0.
X-0.54 Z-1.443 I-0.54 J0.
X0.54 Z-1.532 I0.54 J0.
X-0.54 Z-1.621 I-0.54 J0.
X0.54 Z-1.71 I0.54 J0.
X-0.54 Z-1.798 I-0.54 J0.
X0.54 Z-1.887 I0.54 J0.
X-0.54 Z-1.976 I-0.54 J0.
X0.54 Z-2.064 I0.54 J0.
X-0.54 Z-2.153 I-0.54 J0.
X0.54 Z-2.242 I0.54 J0.
X-0.54 Z-2.33 I-0.54 J0.
X0.54 Z-2.419 I0.54 J0.
X-0.54 Z-2.508 I-0.54 J0.
X0.54 Z-2.597 I0.54 J0.
X-0.54 Z-2.685 I-0.54 J0.
X0.54 Z-2.774 I0.54 J0.
X-0.54 Z-2.863 I-0.54 J0.
X0.54 Z-2.951 I0.54 J0.
X-0.54 Z-3.04 I-0.54 J0.
X0.54 Z-3.129 I0.54 J0.
X-0.54 Z-3.217 I-0.54 J0.
X0.54 Z-3.306 I0.54 J0.
X-0.54 Z-3.395 I-0.54 J0.
X0.54 Z-3.484 I0.54 J0.
X-0.54 Z-3.572 I-0.54 J0.
X0.54 Z-3.661 I0.54 J0.
X-0.54 Z-3.75 I-0.54 J0.
X0.54 Z-3.838 I0.54 J0.
X-0.54 Z-3.927 I-0.54 J0.
X0.54 Z-4.016 I0.54 J0.
X-0.54 Z-4.104 I-0.54 J0.
X0.54 Z-4.193 I0.54 J0.
X-0.54 Z-4.282 I-0.54 J0.
X0.54 Z-4.371 I0.54 J0.
X-0.54 Z-4.459 I-0.54 J0.
X0.54 Z-4.548 I0.54 J0.
X-0.54 Z-4.637 I-0.54 J0.
X0.54 Z-4.725 I0.54 J0.
X-0.54 Z-4.814 I-0.54 J0.
X0.54 Z-4.903 I0.54 J0.
X-0.54 Z-4.991 I-0.54 J0.
X0.54 Z-5.08 I0.54 J0.
X-0.54 Z-5.169 I-0.54 J0.
X0.54 Z-5.258 I0.54 J0.
X-0.54 Z-5.346 I-0.54 J0.
X0.54 Z-5.435 I0.54 J0.
X-0.54 Z-5.524 I-0.54 J0.
X0.54 Z-5.612 I0.54 J0.
X-0.54 Z-5.701 I-0.54 J0.
X0.54 Z-5.79 I0.54 J0.
X-0.54 Z-5.878 I-0.54 J0.
X0.54 Z-5.967 I0.54 J0.
X-0.54 Z-6.056 I-0.54 J0.
X0.54 Z-6.145 I0.54 J0.
X-0.54 Z-6.233 I-0.54 J0.
X0.54 Z-6.322 I0.54 J0.
X-0.54 Z-6.411 I-0.54 J0.
X0.54 Z-6.499 I0.54 J0.
X-0.54 Z-6.588 I-0.54 J0.
X0.54 Z-6.677 I0.54 J0.
X-0.54 Z-6.765 I-0.54 J0.
X0.54 Z-6.854 I0.54 J0.
X-0.54 Z-6.943 I-0.54 J0.
X0.54 Z-7.032 I0.54 J0.
X-0.54 Z-7.12 I-0.54 J0.
X0.54 Z-7.209 I0.54 J0.
X-0.54 Z-7.298 I-0.54 J0.
X0.452 Y-15.395 Z-7.37 I0.54 J0.
X-0.452 Y-14.805 I-0.452 J0.295
X0.452 Y-15.395 I0.452 J-0.295
X0.374 Y-15.022 I-0.226 J0.147
G1 X0.206 Y-14.912
X0.141 Y-14.87 Z-7.362
X0.078 Y-14.829 Z-7.34
X0.02 Y-14.791 Z-7.303
X-0.031 Y-14.758 Z-7.253
X-0.073 Y-14.731 Z-7.192
X-0.103 Y-14.711 Z-7.123
X-0.123 Y-14.698 Z-7.048
X-0.129 Y-14.694 Z-6.97
G0 Z15.

(2D CONTOUR5)
G0 X11.087 Y22.6
Z15.
Z5.
G1 Z0.8 F339.
Z-6.97
G18 G2 X11.488 Z-7.37 I0.4 K0. F365.
G1 X11.887
G17 G3 X12.288 Y23. I0. J0.4
X-12.288 I-12.288 J0.
X12.288 I12.288 J0.
X11.887 Y23.4 I-0.4 J0.
G1 X11.488
G18 G3 X11.087 Z-6.97 I0. K0.4
G0 Z5.
Y75.025
G1 Z0.8 F339.
Z-6.97
G2 X11.488 Z-7.37 I0.4 K0. F365.
G1 X11.887
G17 G3 X12.288 Y75.425 I0. J0.4
X-12.288 I-12.288 J0.
X12.288 I12.288 J0.
X11.887 Y75.825 I-0.4 J0.
G1 X11.488
G18 G3 X11.087 Z-6.97 I0. K0.4
G0 Z5.
Y-75.825
G1 Z0.8 F339.
Z-6.97
G2 X11.488 Z-7.37 I0.4 K0. F365.
G1 X11.887
G17 G3 X12.288 Y-75.425 I0. J0.4
X-12.288 I-12.288 J0.
X12.288 I12.288 J0.
X11.887 Y-75.025 I-0.4 J0.
G1 X11.488
G18 G3 X11.087 Z-6.97 I0. K0.4
G0 Z15.
G17

(2D CONTOUR2)
G0 X-28.6 Y-75.825
Z15.
Z5.
G1 Z0.8 F339.
Z-6.97
G18 G2 X-28.2 Z-7.37 I0.4 K0. F365.
G1 X-27.8
G17 G3 X-27.4 Y-75.425 I0. J0.4
G1 Y-21.764
Z-6.37
Y-13.764
Z-7.37 F339.
Y75.425 F365.
G2 X-20.51 Y93.594 I27.4 J0.
G1 Z-6.37
G2 X-14.388 Y98.744 I20.51 J-18.168
G1 Z-7.37 F339.
G2 X27.4 Y75.425 I14.388 J-23.318 F365.
G1 Y21.764
Z-6.37
Y13.764
Z-7.37 F339.
Y-75.425 F365.
G2 X20.51 Y-93.594 I-27.4 J0.
G1 Z-6.37
G2 X14.388 Y-98.744 I-20.51 J18.168
G1 Z-7.37 F339.
G2 X-27.4 Y-75.425 I-14.388 J23.318 F365.
G3 X-27.8 Y-75.025 I-0.4 J0.
G1 X-28.2
G18 G3 X-28.6 Z-6.97 I0. K0.4
G0 Z15.
G17

M5
G28 G91 Z0.
G90
M30