(POPCORN PENGUINS GENERATED AT 12122025, 11512 PM)
(FUSIONTEST2)
(T6 D=4. CR=0. - ZMIN=-7.858 - FLAT END MILL)
G90 G94 G91.1 G40 G49 G17
G21
G28 G91 Z0.
G90

(2D CONTOUR3)
T6 M6
S18000 M3
G17 G90 G94
G54
G0 X-28.6 Y-75.825
G0 Z15.
Z5.
G1 Z0.8 F508.
Z-7.458
G18 G2 X-28.2 Z-7.858 I0.4 K0. F1905.
G1 X-27.8
G17 G3 X-27.4 Y-75.425 I0. J0.4
G1 Y-21.764
Z-6.858
Y-13.764
Z-7.858 F508.
Y75.425 F1905.
G2 X-20.51 Y93.594 I27.4 J0.
G1 Z-6.858
G2 X-14.388 Y98.744 I20.51 J-18.168
G1 Z-7.858 F508.
G2 X27.4 Y75.425 I14.388 J-23.318 F1905.
G1 Y21.764
Z-6.858
Y13.764
Z-7.858 F508.
Y-75.425 F1905.
G2 X20.51 Y-93.594 I-27.4 J0.
G1 Z-6.858
G2 X14.388 Y-98.744 I-20.51 J18.168
G1 Z-7.858 F508.
G2 X-27.4 Y-75.425 I-14.388 J23.318 F1905.
G3 X-27.8 Y-75.025 I-0.4 J0.
G1 X-28.2
G18 G3 X-28.6 Z-7.458 I0. K0.4
G0 Z15.
G17

M5
G28 G91 Z0.
G90
M30
