(FRC Robotics CAM Post-Processor)
(Material thickness: 0.25")
(Generated by frc_cam_postprocessor.py)

G20  ; Inches
G90  ; Absolute positioning
G17  ; XY plane
F30.0  ; Set feed rate

M3 S18000  ; Spindle on at 18000 RPM
G4 P2  ; Wait 2 seconds for spindle to reach speed

G0 Z0.1  ; Move to safe height

(===== SCREW HOLES =====)
(Screw hole 1)
G0 X1.0000 Y1.0000  ; Position over hole
G0 Z0.1
G1 Z-0.25 F10.0  ; Plunge
G1 Z0.1 F10.0  ; Retract

(Screw hole 2)
G0 X5.0000 Y1.0000  ; Position over hole
G0 Z0.1
G1 Z-0.25 F10.0  ; Plunge
G1 Z0.1 F10.0  ; Retract

(Screw hole 3)
G0 X1.0000 Y5.0000  ; Position over hole
G0 Z0.1
G1 Z-0.25 F10.0  ; Plunge
G1 Z0.1 F10.0  ; Retract

(Screw hole 4)
G0 X5.0000 Y5.0000  ; Position over hole
G0 Z0.1
G1 Z-0.25 F10.0  ; Plunge
G1 Z0.1 F10.0  ; Retract

(===== BEARING HOLES =====)
(Bearing hole 1)
G0 X3.5625 Y3.0000  ; Position at hole edge
G0 Z0.1
G1 Z0 F10.0  ; Rapid to surface
G2 X3.5625 Y3.0000 I-0.5625 J0 Z-0.25 F10.0  ; Helical plunge
G2 X3.5625 Y3.0000 I-0.5625 J0 F30.0  ; Clean up pass
G0 Z0.1  ; Retract

(===== POCKETS =====)
(Pocket 1)
G0 X2.0000 Y2.0000  ; Move to pocket start
G0 Z0.1
G1 Z-0.25 F10.0  ; Plunge
G1 X4.0000 Y2.0000 F30.0
G1 X4.0000 Y4.0000 F30.0
G1 X2.0000 Y4.0000 F30.0
G1 X2.0000 Y2.0000 F30.0  ; Close loop
G0 Z0.1  ; Retract

(===== PERIMETER WITH TABS =====)
G0 X0.5000 Y0.5000  ; Move to perimeter start
G0 Z0.1
G1 Z-0.25 F10.0  ; Plunge to cut depth
G1 X0.3750 Y0.5000 F30.0
G1 Z-0.2200 F10.0  ; Tab 1
G1 X0.6250 Y0.5000 F30.0
G1 Z-0.2500 F10.0
G1 X5.5000 Y0.5000 F30.0
G1 X5.5000 Y0.3750 F30.0
G1 Z-0.2200 F10.0  ; Tab 2
G1 X5.5000 Y0.6250 F30.0
G1 Z-0.2500 F10.0
G1 X5.5000 Y5.5000 F30.0
G1 X5.6250 Y5.5000 F30.0
G1 Z-0.2200 F10.0  ; Tab 3
G1 X5.3750 Y5.5000 F30.0
G1 Z-0.2500 F10.0
G1 X0.5000 Y5.5000 F30.0
G1 X0.5000 Y5.6250 F30.0
G1 Z-0.2200 F10.0  ; Tab 4
G1 X0.5000 Y5.3750 F30.0
G1 Z-0.2500 F10.0
G1 X0.5000 Y0.5000 F30.0
G0 Z0.1  ; Retract

(===== FINISH =====)
G0 Z0.1  ; Move to safe height
M5  ; Spindle off
G0 X0 Y0  ; Return to origin
M30  ; Program end