(FRC Robotics CAM Post-Processor)
(Material thickness: 0.25")
(Tool diameter: 0.157" = 3.99mm)
(Tool compensation: Perimeter +0.0785", Pockets -0.0785")
(Generated by frc_cam_postprocessor.py)

G20  ; Inches
G90  ; Absolute positioning
G17  ; XY plane
F30.0  ; Set feed rate

M3 S18000  ; Spindle on at 18000 RPM
G4 P2  ; Wait 2 seconds for spindle to reach speed

G0 Z0.1  ; Move to safe height

(===== SCREW HOLES =====)
(Strategy: Mill out - helical interpolation with tool compensation)
(Screw hole 1)
G0 X1.0165 Y1.0000  ; Position at hole edge (compensated)
G0 Z0.1
G1 Z0 F10.0  ; Rapid to surface
G2 X1.0165 Y1.0000 I-0.0165 J0 Z-0.25 F10.0  ; Helical plunge
G2 X1.0165 Y1.0000 I-0.0165 J0 F30.0  ; Clean up pass
G0 Z0.1  ; Retract

(Screw hole 2)
G0 X5.0165 Y1.0000  ; Position at hole edge (compensated)
G0 Z0.1
G1 Z0 F10.0  ; Rapid to surface
G2 X5.0165 Y1.0000 I-0.0165 J0 Z-0.25 F10.0  ; Helical plunge
G2 X5.0165 Y1.0000 I-0.0165 J0 F30.0  ; Clean up pass
G0 Z0.1  ; Retract

(Screw hole 3)
G0 X1.0165 Y5.0000  ; Position at hole edge (compensated)
G0 Z0.1
G1 Z0 F10.0  ; Rapid to surface
G2 X1.0165 Y5.0000 I-0.0165 J0 Z-0.25 F10.0  ; Helical plunge
G2 X1.0165 Y5.0000 I-0.0165 J0 F30.0  ; Clean up pass
G0 Z0.1  ; Retract

(Screw hole 4)
G0 X5.0165 Y5.0000  ; Position at hole edge (compensated)
G0 Z0.1
G1 Z0 F10.0  ; Rapid to surface
G2 X5.0165 Y5.0000 I-0.0165 J0 Z-0.25 F10.0  ; Helical plunge
G2 X5.0165 Y5.0000 I-0.0165 J0 F30.0  ; Clean up pass
G0 Z0.1  ; Retract

(===== BEARING HOLES =====)
(Bearing hole 1)
G0 X3.4840 Y3.0000  ; Position at hole edge (compensated)
G0 Z0.1
G1 Z0 F10.0  ; Rapid to surface
G2 X3.4840 Y3.0000 I-0.4840 J0 Z-0.25 F10.0  ; Helical plunge
G2 X3.4840 Y3.0000 I-0.4840 J0 F30.0  ; Clean up pass
G0 Z0.1  ; Retract

(===== POCKETS =====)
(Pocket 1)
G0 X2.0785 Y2.0785  ; Move to pocket start (compensated)
G0 Z0.1
G1 Z-0.25 F10.0  ; Plunge
G1 X2.0785 Y3.9215 F30.0
G1 X3.9215 Y3.9215 F30.0
G1 X3.9215 Y2.0785 F30.0
G1 X2.0785 Y2.0785 F30.0  ; Close loop
G0 Z0.1  ; Retract

(===== PERIMETER WITH TABS =====)
G0 X0.4215 Y0.5000  ; Move to perimeter start (compensated)
G0 Z0.1
G1 Z-0.25 F10.0  ; Plunge to cut depth
G1 X0.4215 Y0.3750 F30.0
G1 Z-0.2200 F10.0  ; Tab 1
G1 X0.4215 Y0.6250 F30.0
G1 Z-0.2500 F10.0
G1 X0.4215 Y5.5000 F30.0
G1 X0.4219 Y5.5077 F30.0
G1 X0.4230 Y5.5153 F30.0
G1 X0.4249 Y5.5228 F30.0
G1 X0.4275 Y5.5300 F30.0
G1 X0.4308 Y5.5370 F30.0
G1 X0.4347 Y5.5436 F30.0
G1 X0.4393 Y5.5498 F30.0
G1 X0.4445 Y5.5555 F30.0
G1 X0.4502 Y5.5607 F30.0
G1 X0.4564 Y5.5653 F30.0
G1 X0.4630 Y5.5692 F30.0
G1 X0.4700 Y5.5725 F30.0
G1 X0.4772 Y5.5751 F30.0
G1 X0.4847 Y5.5770 F30.0
G1 X0.4923 Y5.5781 F30.0
G1 X0.3752 Y5.5724 F30.0
G1 Z-0.2200 F10.0  ; Tab 2
G1 X0.6248 Y5.5846 F30.0
G1 Z-0.2500 F10.0
G1 X0.5000 Y5.5785 F30.0
G1 X5.5000 Y5.5785 F30.0
G1 X5.5077 Y5.5781 F30.0
G1 X5.5153 Y5.5770 F30.0
G1 X5.5228 Y5.5751 F30.0
G1 X5.5300 Y5.5725 F30.0
G1 X5.5370 Y5.5692 F30.0
G1 X5.5436 Y5.5653 F30.0
G1 X5.5498 Y5.5607 F30.0
G1 X5.5555 Y5.5555 F30.0
G1 X5.5607 Y5.5498 F30.0
G1 X5.5653 Y5.5436 F30.0
G1 X5.5692 Y5.5370 F30.0
G1 X5.5725 Y5.5300 F30.0
G1 X5.5751 Y5.5228 F30.0
G1 X5.5770 Y5.5153 F30.0
G1 X5.5781 Y5.5077 F30.0
G1 X5.5724 Y5.6248 F30.0
G1 Z-0.2200 F10.0  ; Tab 3
G1 X5.5846 Y5.3752 F30.0
G1 Z-0.2500 F10.0
G1 X5.5785 Y5.5000 F30.0
G1 X5.5785 Y0.5000 F30.0
G1 X5.5781 Y0.4923 F30.0
G1 X5.5770 Y0.4847 F30.0
G1 X5.5751 Y0.4772 F30.0
G1 X5.5725 Y0.4700 F30.0
G1 X5.5692 Y0.4630 F30.0
G1 X5.5653 Y0.4564 F30.0
G1 X5.5607 Y0.4502 F30.0
G1 X5.5555 Y0.4445 F30.0
G1 X5.5498 Y0.4393 F30.0
G1 X5.5436 Y0.4347 F30.0
G1 X5.5370 Y0.4308 F30.0
G1 X5.5300 Y0.4275 F30.0
G1 X5.5228 Y0.4249 F30.0
G1 X5.5153 Y0.4230 F30.0
G1 X5.5077 Y0.4219 F30.0
G1 X5.6248 Y0.4276 F30.0
G1 Z-0.2200 F10.0  ; Tab 4
G1 X5.3752 Y0.4154 F30.0
G1 Z-0.2500 F10.0
G1 X5.5000 Y0.4215 F30.0
G1 X0.5000 Y0.4215 F30.0
G1 X0.4923 Y0.4219 F30.0
G1 X0.4847 Y0.4230 F30.0
G1 X0.4772 Y0.4249 F30.0
G1 X0.4700 Y0.4275 F30.0
G1 X0.4630 Y0.4308 F30.0
G1 X0.4564 Y0.4347 F30.0
G1 X0.4502 Y0.4393 F30.0
G1 X0.4445 Y0.4445 F30.0
G1 X0.4393 Y0.4502 F30.0
G1 X0.4347 Y0.4564 F30.0
G1 X0.4308 Y0.4630 F30.0
G1 X0.4275 Y0.4700 F30.0
G1 X0.4249 Y0.4772 F30.0
G1 X0.4230 Y0.4847 F30.0
G1 X0.4219 Y0.4923 F30.0
G1 X0.4215 Y0.5000 F30.0
G0 Z0.1  ; Retract

(===== FINISH =====)
G0 Z0.1  ; Move to safe height
M5  ; Spindle off
G0 X0 Y0  ; Return to origin
M30  ; Program end